Flat-Remix-Blue-Dark/apps/scalable/steam_icon_287390.svg

<svg xmlns="http://www.w3.org/2000/svg" xmlns:xlink="http://www.w3.org/1999/xlink" width="512" height="512" version="1.1" viewBox="0 0 384 384"> <defs> <filter id="alpha" width="100%" height="100%" x="0%" y="0%" filterUnits="objectBoundingBox"> <feColorMatrix in="SourceGraphic" type="matrix" values="0 0 0 0 1 0 0 0 0 1 0 0 0 0 1 0 0 0 1 0"/> </filter> <mask id="mask0"> <g filter="url(#alpha)"> <rect width="384" height="384" x="0" y="0" style="fill:rgb(0%,0%,0%);fill-opacity:0.501961"/> </g> </mask> <clipPath id="clip1"> <rect width="384" height="384" x="0" y="0"/> </clipPath> <g id="surface5" clip-path="url(#clip1)"> <path style="fill:rgb(100.000%,78.039%,18.823%)" d="M 30.742188 247.246094 L 30.742188 290.402344 L 353.253906 290.402344 L 353.253906 247.246094 Z M 239.578125 254.160156 L 243.855469 254.160156 L 243.855469 276.824219 L 240.070312 283.378906 L 227.050781 283.378906 L 222.683594 275.816406 L 222.683594 255.144531 L 227.480469 255.308594 L 227.480469 275.28125 L 229.40625 278.710938 L 237.527344 278.710938 L 239.578125 275.160156 Z M 107.574219 254.460938 C 112.238281 254.460938 116.019531 258.179688 116.019531 262.761719 C 116.015625 266.40625 113.59375 269.621094 110.046875 270.691406 L 118.179688 281.066406 L 118.179688 282.707031 L 111.617188 282.707031 L 103.414062 271.386719 L 99.476562 271.386719 L 99.476562 282.707031 L 94.554688 282.707031 L 94.554688 254.652344 C 94.554688 254.652344 103.359375 254.507812 106.859375 254.496094 C 107.097656 254.472656 107.335938 254.460938 107.574219 254.460938 Z M 138.683594 254.488281 L 158.042969 254.488281 L 158.042969 259.738281 L 144.425781 259.738281 L 144.425781 266.136719 L 157.878906 266.136719 L 157.878906 270.839844 L 144.261719 270.839844 L 144.261719 277.457031 L 158.207031 277.457031 L 158.207031 282.378906 L 138.683594 282.378906 Z M 195.574219 254.53125 L 201.601562 260.558594 L 201.601562 277.046875 L 196.105469 282.542969 L 179.863281 282.542969 L 179.863281 254.980469 Z M 280.59375 254.621094 L 287.097656 254.621094 L 278.910156 268.804688 L 286.5 281.949219 L 280.605469 281.949219 L 275.027344 272.285156 L 269.4375 281.964844 L 263.878906 281.964844 L 271.585938 268.613281 L 264.1875 254.980469 L 269.863281 255.226562 L 275.054688 264.214844 Z M 103.734375 258.640625 C 102.273438 258.644531 100.804688 258.652344 99.355469 258.652344 L 99.355469 266.953125 C 102.210938 266.871094 105.355469 267.101562 108.070312 266.878906 C 109.957031 266.574219 111.355469 264.832031 111.355469 262.78125 C 111.355469 260.730469 109.957031 258.988281 108.070312 258.683594 L 108.070312 258.652344 C 106.644531 258.636719 105.191406 258.636719 103.734375 258.640625 Z M 184.292969 259.738281 L 184.292969 277.292969 L 193.972656 277.292969 L 196.597656 274.667969 L 196.597656 262.199219 L 194.21875 259.820312 Z M 184.292969 259.738281"/> </g> </defs> <g> <path style="fill-rule:evenodd;fill:rgb(58.431%,7.058%,7.058%)" d="M 368.015625 285.894531 L 353.148438 290.433594 L 353.148438 285.847656 Z M 368.015625 285.894531"/> <path style="fill-rule:evenodd;fill:rgb(58.431%,7.058%,7.058%)" d="M 15.921875 285.859375 L 30.800781 290.34375 L 30.800781 285.859375 Z M 15.921875 285.859375"/> <path style="fill:rgb(0%,0%,0%)" d="M 30.75 60.75 L 353.25 60.75 L 353.25 323.25 L 30.75 323.25 Z M 30.75 60.75"/> <use mask="url(#mask0)" xlink:href="#surface5"/> <path style="fill:rgb(100.000%,78.039%,18.823%)" d="M 15.894531 242.746094 L 15.894531 285.902344 L 368.015625 285.902344 L 368.015625 242.746094 Z M 239.578125 249.660156 L 243.855469 249.660156 L 243.855469 272.324219 L 240.070312 278.878906 L 227.050781 278.878906 L 222.683594 271.316406 L 222.683594 250.644531 L 227.480469 250.808594 L 227.480469 270.78125 L 229.40625 274.210938 L 237.527344 274.210938 L 239.578125 270.660156 Z M 107.574219 249.960938 C 112.238281 249.960938 116.019531 253.679688 116.019531 258.261719 C 116.015625 261.90625 113.59375 265.121094 110.046875 266.191406 L 118.179688 276.566406 L 118.179688 278.207031 L 111.617188 278.207031 L 103.414062 266.886719 L 99.476562 266.886719 L 99.476562 278.207031 L 94.554688 278.207031 L 94.554688 250.152344 C 94.554688 250.152344 103.359375 250.007812 106.859375 249.996094 C 107.097656 249.972656 107.335938 249.960938 107.574219 249.960938 Z M 138.683594 249.988281 L 158.042969 249.988281 L 158.042969 255.238281 L 144.425781 255.238281 L 144.425781 261.636719 L 157.878906 261.636719 L 157.878906 266.339844 L 144.261719 266.339844 L 144.261719 272.957031 L 158.207031 272.957031 L 158.207031 277.878906 L 138.683594 277.878906 Z M 195.574219 250.03125 L 201.601562 256.058594 L 201.601562 272.546875 L 196.105469 278.042969 L 179.863281 278.042969 L 179.863281 250.480469 Z M 280.59375 250.121094 L 287.097656 250.121094 L 278.910156 264.304688 L 286.5 277.449219 L 280.605469 277.449219 L 275.027344 267.785156 L 269.4375 277.464844 L 263.878906 277.464844 L 271.585938 264.113281 L 264.1875 250.480469 L 269.863281 250.726562 L 275.054688 259.714844 Z M 103.734375 254.140625 C 102.273438 254.144531 100.804688 254.152344 99.355469 254.152344 L 99.355469 262.453125 C 102.210938 262.371094 105.355469 262.601562 108.070312 262.378906 C 109.957031 262.074219 111.355469 260.332031 111.355469 258.28125 C 111.355469 256.230469 109.957031 254.488281 108.070312 254.183594 L 108.070312 254.152344 C 106.644531 254.136719 105.191406 254.136719 103.734375 254.140625 Z M 184.292969 255.238281 L 184.292969 272.792969 L 193.972656 272.792969 L 196.597656 270.167969 L 196.597656 257.699219 L 194.21875 255.320312 Z M 184.292969 255.238281"/> <path style="fill-rule:evenodd;fill:rgb(100.000%,100.000%,100.000%)" d="M 292.964844 112.164062 C 277.566406 112.75 264.082031 122.679688 258.953125 137.210938 C 258.886719 136.140625 258.769531 135.035156 258.578125 133.871094 C 255.511719 115.492188 238.09375 114.34375 233.785156 114.34375 C 233.167969 114.34375 232.820312 114.367188 232.820312 114.367188 L 130.304688 114.367188 L 130.089844 130.871094 L 169.058594 130.871094 L 169.058594 184.628906 L 189.8125 184.628906 L 189.8125 130.621094 L 231.011719 130.621094 C 231.320312 130.582031 231.632812 130.558594 231.945312 130.554688 C 236.589844 130.554688 240.355469 134.320312 240.355469 138.964844 C 240.351562 143.558594 236.664062 147.300781 232.070312 147.371094 L 232.070312 147.375 L 215.566406 147.375 L 215.566406 134.621094 L 197.0625 134.621094 L 197.0625 184.878906 L 215.566406 184.878906 L 215.566406 163.878906 L 224.820312 163.878906 L 238.820312 184.628906 L 260.078125 184.628906 L 243.824219 160.625 C 243.824219 160.625 252.59375 157.855469 256.808594 149.160156 C 256.804688 149.339844 256.800781 149.519531 256.800781 149.695312 C 256.824219 169.882812 272.792969 186.445312 292.964844 187.207031 L 292.964844 169.878906 C 282.363281 169.136719 274.136719 160.324219 274.125 149.695312 C 274.125 139.058594 282.355469 130.238281 292.964844 129.492188 Z M 295.792969 112.1875 L 295.792969 129.511719 C 306.398438 130.253906 314.625 139.066406 314.636719 149.695312 C 314.632812 160.332031 306.40625 169.15625 295.792969 169.898438 L 295.792969 187.226562 C 315.976562 186.46875 331.949219 169.894531 331.960938 149.695312 C 331.9375 129.507812 315.96875 112.945312 295.792969 112.1875 Z M 107.296875 114.867188 L 89.296875 141.496094 L 73.292969 114.992188 L 52.289062 115.242188 L 89.671875 171 L 107.800781 145.371094 L 108.046875 185.378906 L 127.675781 185.253906 L 127.804688 157.5 L 161.683594 157.5 L 161.683594 142.246094 L 127.550781 142.246094 L 127.425781 114.867188 Z M 52.039062 118.867188 L 52.164062 184.378906 L 71.667969 184.628906 L 71.792969 148.375 Z M 130.53125 167.753906 L 130.316406 185.003906 L 165.808594 185.003906 L 165.808594 167.753906 Z M 130.53125 167.753906"/> <path style="fill-rule:evenodd;fill:rgb(100.000%,100.000%,100.000%)" d="M 250.792969 196.371094 C 241.75 196.402344 234.476562 202.898438 234.476562 212.066406 L 234.476562 216.152344 C 234.476562 225.320312 241.75 231.8125 250.792969 231.847656 L 250.792969 225.359375 C 246.507812 224.910156 243.1875 221.304688 243.1875 216.894531 L 243.1875 211.359375 C 243.1875 206.949219 246.507812 203.34375 250.792969 202.890625 Z M 252.570312 196.371094 L 252.570312 202.886719 C 255.738281 203.203125 258.382812 205.246094 259.5625 208.0625 L 266.746094 208.0625 C 265.121094 201.367188 259.503906 197.097656 252.570312 196.371094 Z M 128.371094 196.371094 L 128.371094 201.074219 C 129.808594 201.140625 131.035156 201.605469 132.042969 202.488281 C 133.128906 203.402344 133.671875 204.660156 133.671875 206.269531 L 141.523438 206.269531 C 141.523438 204.480469 141.152344 202.925781 140.417969 201.609375 C 139.71875 200.292969 138.75 199.199219 137.507812 198.320312 C 136.308594 197.445312 134.867188 196.824219 133.207031 196.402344 C 131.675781 196.011719 130.066406 196.398438 128.371094 196.371094 Z M 127.335938 196.371094 C 125.964844 196.429688 124.570312 196.050781 123.144531 196.457031 C 121.480469 196.933594 119.964844 197.628906 118.609375 198.539062 C 117.253906 199.453125 116.128906 200.605469 115.238281 201.992188 C 114.382812 203.347656 113.957031 204.898438 113.957031 206.652344 C 113.957031 208.664062 114.480469 210.269531 115.527344 211.476562 C 116.574219 212.644531 117.871094 213.59375 119.421875 214.324219 C 120.972656 215.058594 122.660156 215.640625 124.484375 216.082031 C 125.480469 216.316406 126.425781 216.554688 127.335938 216.800781 L 127.335938 210.457031 C 127.183594 210.414062 127.015625 210.371094 126.867188 210.324219 C 125.316406 209.8125 124.019531 209.226562 122.972656 208.570312 C 121.925781 207.914062 121.402344 207 121.402344 205.832031 C 121.402344 205.0625 121.613281 204.386719 122.039062 203.804688 C 122.46875 203.21875 122.992188 202.726562 123.613281 202.324219 C 124.269531 201.921875 124.988281 201.609375 125.761719 201.390625 C 126.296875 201.242188 126.820312 201.144531 127.335938 201.097656 Z M 322.695312 196.371094 L 322.796875 203.3125 L 331.472656 203.3125 L 331.472656 196.371094 Z M 154.921875 196.371094 L 154.921875 231.847656 L 162.871094 231.847656 L 162.871094 196.371094 Z M 279.503906 196.371094 L 271.4375 196.371094 L 271.4375 231.847656 L 279.503906 231.847656 Z M 164.296875 196.371094 L 164.296875 203.074219 L 173.429688 203.074219 L 173.429688 196.371094 Z M 231.097656 196.371094 L 223.5 196.371094 L 223.5 231.847656 L 231.097656 231.847656 Z M 52.527344 196.371094 L 52.527344 231.847656 L 60.238281 231.847656 L 60.238281 196.371094 Z M 144.242188 196.371094 L 144.242188 203.3125 L 153.140625 203.3125 L 153.140625 196.371094 Z M 303.355469 196.371094 L 303.355469 203.191406 L 311.777344 203.191406 L 311.777344 196.371094 Z M 203.160156 196.371094 L 195.144531 196.371094 L 195.144531 231.847656 L 202.976562 231.847656 L 202.976562 196.371094 Z M 321.746094 196.371094 L 313.558594 196.371094 L 313.558594 231.847656 L 321.746094 231.847656 Z M 291.84375 196.371094 L 291.84375 209.242188 L 280.808594 209.480469 L 280.808594 216.242188 L 292.082031 216.242188 L 292.082031 231.847656 L 299.554688 231.847656 L 299.554688 196.371094 Z M 91.679688 196.371094 L 79.933594 231.847656 L 88.832031 231.847656 L 96.308594 204.617188 L 99.988281 217.90625 L 94.171875 217.90625 L 92.273438 223.839844 L 102.121094 223.839844 L 104.375 231.847656 L 112.800781 231.847656 L 100.460938 196.371094 Z M 128.371094 210.757812 L 128.371094 217.097656 C 128.78125 217.214844 129.210938 217.332031 129.601562 217.449219 C 131.152344 217.925781 132.449219 218.511719 133.496094 219.203125 C 134.542969 219.898438 135.066406 220.847656 135.066406 222.054688 C 135.066406 222.859375 134.835938 223.554688 134.367188 224.136719 C 133.941406 224.722656 133.378906 225.214844 132.683594 225.617188 C 132.023438 225.984375 131.269531 226.257812 130.414062 226.441406 C 129.71875 226.597656 129.039062 226.679688 128.371094 226.703125 L 128.371094 231.847656 C 128.371094 231.847656 131.351562 232.039062 132.914062 231.644531 C 134.660156 231.207031 136.230469 230.53125 137.625 229.617188 C 139.0625 228.707031 140.242188 227.574219 141.171875 226.21875 C 142.101562 224.832031 142.570312 223.222656 142.570312 221.398438 C 142.570312 219.386719 142.046875 217.761719 141 216.519531 C 139.953125 215.277344 138.632812 214.289062 137.042969 213.558594 C 135.492188 212.792969 133.808594 212.1875 131.984375 211.75 C 130.71875 211.417969 129.527344 211.089844 128.371094 210.757812 Z M 251.535156 211.988281 L 251.535156 218.574219 L 260.050781 218.574219 C 259.332031 222.203125 256.316406 224.992188 252.570312 225.367188 L 252.570312 231.847656 C 255.925781 231.496094 258.972656 230.925781 261.410156 228.847656 L 261.410156 231.253906 L 267.164062 231.253906 L 267.164062 217.542969 C 267.203125 217.082031 267.222656 216.621094 267.222656 216.152344 L 267.222656 212.066406 Z M 112.851562 220.574219 C 112.851562 222.546875 113.257812 224.265625 114.074219 225.726562 C 114.886719 227.1875 115.992188 228.414062 117.386719 229.398438 C 118.785156 230.351562 120.375 231.078125 122.15625 231.589844 C 123.816406 232.023438 125.546875 231.808594 127.335938 231.847656 L 127.335938 226.695312 C 127.335938 226.695312 123.96875 226.15625 122.796875 225.34375 C 121.476562 224.429688 120.78125 222.839844 120.703125 220.574219 Z M 204.042969 224.429688 L 204.398438 224.90625 L 204.398438 231.847656 L 218.992188 231.847656 L 218.992188 224.429688 Z M 61.542969 224.785156 L 61.542969 231.847656 L 76.375 231.847656 L 76.375 224.785156 Z M 61.542969 224.785156"/> </g> </svg>

<svg width="512" height="512" version="1.1" viewBox="0 0 384 384" xmlns="http://www.w3.org/2000/svg">
 <defs>
  <clipPath>
   <rect width="384" height="384"/>
  </clipPath>
 </defs>
 <path d="m368.02 285.89-14.867 4.5391v-4.5859z" fill="#941111" fill-rule="evenodd"/>
 <path d="m15.922 285.86 14.879 4.4844v-4.4844z" fill="#941111" fill-rule="evenodd"/>
 <path d="m30.75 60.75h322.5v262.5h-322.5z"/>
 <path d="m30.743 247.25v43.156h322.51v-43.156zm208.88 6.9141h4.2774v22.664l-3.7852 6.5547h-13.02l-4.3672-7.5625v-20.672l4.7969 0.16406v19.973l1.9258 3.4297h8.1211l2.0508-3.5508zm-132 0.30078c4.6641 0 8.4453 3.7188 8.4453 8.3008-4e-3 3.6445-2.4258 6.8594-5.9727 7.9297l8.1328 10.375v1.6406h-6.5625l-8.2031-11.32h-3.9375v11.32h-4.9219v-28.055s8.8047-0.14453 12.305-0.15625c0.23828-0.0234 0.47657-0.0352 0.71484-0.0352zm31.109 0.0273h19.359v5.25h-13.617v6.3984h13.453v4.7031h-13.617v6.6172h13.945v4.9219h-19.523zm56.891 0.043 6.0274 6.0273v16.488l-5.4961 5.4961h-16.242v-27.562zm85.02 0.0898h6.5039l-8.1875 14.184 7.5898 13.145h-5.8945l-5.5781-9.6641-5.5898 9.6797h-5.5586l7.707-13.352-7.3984-13.633 5.6758 0.24609 5.1914 8.9883zm-176.86 4.0195c-1.4609 4e-3 -2.9297 0.0117-4.3789 0.0117v8.3008c2.8555-0.082 6 0.14844 8.7148-0.0742 1.8867-0.30469 3.2852-2.0469 3.2852-4.0977s-1.3984-3.793-3.2852-4.0977v-0.0312c-1.4258-0.0156-2.8789-0.0156-4.3359-0.0117zm80.559 1.0977v17.555h9.6797l2.625-2.625v-12.469l-2.3789-2.3789z" fill="#ffc72e" opacity=".3"/>
 <path d="m15.939 242.75v43.156h352.12v-43.156zm223.68 6.9141h4.2774v22.664l-3.7852 6.5547h-13.02l-4.3672-7.5625v-20.672l4.7969 0.16406v19.973l1.9258 3.4297h8.1211l2.0508-3.5508zm-132 0.30078c4.6641 0 8.4453 3.7188 8.4453 8.3008-4e-3 3.6445-2.4258 6.8594-5.9726 7.9297l8.1328 10.375v1.6406h-6.5625l-8.2031-11.32h-3.9375v11.32h-4.9219v-28.055s8.8047-0.14453 12.305-0.15625c0.23828-0.0234 0.47656-0.0352 0.71484-0.0352zm31.109 0.0273h19.359v5.25h-13.617v6.3984h13.453v4.7031h-13.617v6.6172h13.945v4.9219h-19.523zm56.891 0.043 6.0273 6.0273v16.488l-5.4961 5.4961h-16.242v-27.562zm85.02 0.0898h6.5039l-8.1875 14.184 7.5898 13.145h-5.8945l-5.5781-9.6641-5.5898 9.6797h-5.5586l7.707-13.352-7.3984-13.633 5.6758 0.24609 5.1914 8.9883zm-176.86 4.0195c-1.4609 4e-3 -2.9297 0.0117-4.3789 0.0117v8.3008c2.8555-0.082 6 0.14844 8.7148-0.0742 1.8867-0.30469 3.2852-2.0469 3.2852-4.0977s-1.3984-3.793-3.2852-4.0977v-0.0312c-1.4258-0.0156-2.8789-0.0156-4.3359-0.0117zm80.559 1.0977v17.555h9.6797l2.625-2.625v-12.469l-2.3789-2.3789z" fill="#ffc72e"/>
 <g fill="#fff">
  <path d="m292.96 112.16c-15.398 0.58594-28.883 10.516-34.012 25.047-0.0664-1.0703-0.18359-2.1758-0.375-3.3398-3.0664-18.379-20.484-19.527-24.793-19.527-0.61719 0-0.96485 0.0234-0.96485 0.0234h-102.52l-0.21485 16.504h38.969v53.758h20.754v-54.008h41.199c0.30859-0.0391 0.62109-0.0625 0.93359-0.0664 4.6445 0 8.4102 3.7656 8.4102 8.4102-4e-3 4.5938-3.6914 8.3359-8.2852 8.4062v4e-3h-16.504v-12.754h-18.504v50.258h18.504v-21h9.2539l14 20.75h21.258l-16.254-24.004s8.7695-2.7695 12.984-11.465c-4e-3 0.17968-8e-3 0.35937-8e-3 0.53515 0.0234 20.188 15.992 36.75 36.164 37.512v-17.328c-10.602-0.74219-18.828-9.5547-18.84-20.184 0-10.637 8.2305-19.457 18.84-20.203zm2.8281 0.0234v17.324c10.605 0.74219 18.832 9.5547 18.844 20.184-4e-3 10.637-8.2305 19.461-18.844 20.203v17.328c20.184-0.75781 36.156-17.332 36.168-37.531-0.0234-20.188-15.992-36.75-36.168-37.508zm-188.5 2.6797-18 26.629-16.004-26.504-21.004 0.25 37.383 55.758 18.129-25.629 0.2461 40.008 19.629-0.125 0.12891-27.754h33.879v-15.254h-34.133l-0.125-27.379zm-55.258 4 0.125 65.512 19.504 0.25 0.125-36.254zm78.492 48.887-0.21484 17.25h35.492v-17.25z" fill-rule="evenodd"/>
  <path d="m250.79 196.37c-9.043 0.0312-16.316 6.5274-16.316 15.695v4.0859c0 9.168 7.2734 15.66 16.316 15.695v-6.4883c-4.2852-0.44921-7.6055-4.0547-7.6055-8.4648v-5.5352c0-4.4102 3.3203-8.0156 7.6055-8.4688zm1.7773 0v6.5156c3.168 0.3164 5.8125 2.3594 6.9922 5.1758h7.1836c-1.625-6.6953-7.2422-10.965-14.176-11.691zm-124.2 0v4.7031c1.4375 0.0664 2.6641 0.53125 3.6719 1.4141 1.0859 0.91406 1.6289 2.1719 1.6289 3.7812h7.8516c0-1.7891-0.3711-3.3438-1.1055-4.6602-0.69922-1.3164-1.668-2.4102-2.9102-3.2891-1.1992-0.875-2.6406-1.4961-4.3008-1.918-1.5312-0.39062-3.1406-4e-3 -4.8359-0.0312zm-1.0352 0c-1.3711 0.0586-2.7656-0.32031-4.1914 0.0859-1.6641 0.47656-3.1797 1.1719-4.5352 2.082-1.3555 0.91406-2.4805 2.0664-3.3711 3.4531-0.85547 1.3555-1.2812 2.9062-1.2812 4.6602 0 2.0117 0.52344 3.6172 1.5703 4.8242 1.0469 1.168 2.3438 2.1172 3.8945 2.8477 1.5508 0.73437 3.2383 1.3164 5.0625 1.7578 0.99609 0.23438 1.9414 0.47266 2.8516 0.71875v-6.3438c-0.15235-0.043-0.32031-0.0859-0.46875-0.13281-1.5508-0.51172-2.8477-1.0977-3.8945-1.7539-1.0469-0.65625-1.5703-1.5703-1.5703-2.7383 0-0.76953 0.21094-1.4453 0.63672-2.0273 0.42969-0.58594 0.95313-1.0781 1.5742-1.4805 0.65625-0.40235 1.375-0.71485 2.1484-0.9336 0.53516-0.14843 1.0586-0.24609 1.5742-0.29296zm195.36 0 0.10156 6.9414h8.6758v-6.9414zm-167.77 0v35.477h7.9492v-35.477zm124.58 0h-8.0664v35.477h8.0664zm-115.21 0v6.7031h9.1328v-6.7031zm66.801 0h-7.5977v35.477h7.5977zm-178.57 0v35.477h7.7109v-35.477zm91.715 0v6.9414h8.8984v-6.9414zm159.11 0v6.8203h8.4219v-6.8203zm-100.2 0h-8.0156v35.477h7.832v-35.477zm118.59 0h-8.1875v35.477h8.1875zm-29.902 0v12.871l-11.035 0.23828v6.7617h11.273v15.605h7.4727v-35.477zm-200.16 0-11.746 35.477h8.8984l7.4766-27.23 3.6797 13.289h-5.8164l-1.8984 5.9336h9.8477l2.2539 8.0078h8.4258l-12.34-35.477zm36.691 14.387v6.3398c0.41016 0.11718 0.83985 0.23437 1.2305 0.35156 1.5508 0.47656 2.8477 1.0625 3.8945 1.7539 1.0469 0.69532 1.5703 1.6445 1.5703 2.8516 0 0.80468-0.23047 1.5-0.69922 2.082-0.42578 0.58594-0.98828 1.0781-1.6836 1.4805-0.66015 0.36718-1.4141 0.64062-2.2695 0.82422-0.69531 0.15625-1.375 0.23828-2.043 0.26171v5.1445s2.9805 0.1914 4.543-0.20313c1.7461-0.4375 3.3164-1.1133 4.7109-2.0273 1.4375-0.91016 2.6172-2.043 3.5469-3.3984 0.92969-1.3867 1.3984-2.9961 1.3984-4.8203 0-2.0117-0.52344-3.6367-1.5703-4.8789-1.0469-1.2422-2.3672-2.2305-3.957-2.9609-1.5508-0.76562-3.2344-1.3711-5.0586-1.8086-1.2656-0.33203-2.457-0.66016-3.6133-0.99219zm123.16 1.2305v6.5859h8.5156c-0.71875 3.6289-3.7344 6.418-7.4805 6.793v6.4805c3.3555-0.35157 6.4024-0.92188 8.8398-3v2.4062h5.7539v-13.711c0.0391-0.46094 0.0586-0.92188 0.0586-1.3906v-4.0859zm-138.68 8.5859c0 1.9726 0.40625 3.6914 1.2227 5.1523 0.8125 1.4609 1.918 2.6875 3.3125 3.6719 1.3984 0.95312 2.9883 1.6797 4.7695 2.1914 1.6602 0.4336 3.3906 0.21875 5.1797 0.25782v-5.1524s-3.3672-0.53906-4.5391-1.3516c-1.3203-0.91406-2.0156-2.5039-2.0938-4.7695zm91.191 3.8555 0.35547 0.47656v6.9414h14.594v-7.418zm-142.5 0.35547v7.0625h14.832v-7.0625z" fill-rule="evenodd"/>
  <path transform="scale(.75)" d="m41 421v10h430v-10h-430z" opacity=".2" stroke-width="1.3333"/>
  <path transform="scale(.75)" d="m41 81v10h430v-10h-430z" opacity=".1" stroke-width="1.3333"/>
 </g>
</svg>
